brandFactory_export/1.Light/Fuego llama_1Light.svg

<?xml version="1.0" encoding="UTF-8"?>
<svg width="24px" height="24px" viewBox="0 0 24 24" version="1.1" xmlns="http://www.w3.org/2000/svg" xmlns:xlink="http://www.w3.org/1999/xlink">
    <title>1.Light/Fuego llama_1Light</title>
    <g id="Symbols" stroke="none" stroke-width="1" fill="none" fill-rule="evenodd">
        <g id="1.Light/Fuego-llama_1Light" fill="#5CB615" fill-rule="nonzero">
            <path d="M18.7109244,20.4067227 C17.8201681,21.2134454 16.7714286,21.8218487 15.6285714,22.194958 C15.7495798,22.0638655 15.8638655,21.9294118 15.9714286,21.7848739 C17.8907563,19.1764706 16.3176471,15.1731092 14.3445378,13.4487395 C13.4571429,12.6756303 12.4016807,12.107563 11.3731092,11.8453782 C11.2689076,11.5932773 10.9798319,11.4756303 10.7277311,11.5798319 C10.4756303,11.6840336 10.3579832,11.9731092 10.4621849,12.2252101 C10.5226891,12.3663866 10.6436975,12.4739496 10.7915966,12.5109244 C10.8016807,12.5344538 11.712605,14.8168067 9.66218487,16.4134454 C9.3697479,16.6352941 9.10084034,16.887395 8.85882353,17.1630252 C7.7394958,18.4336134 7.60168067,20.292437 8.51596639,21.7142857 C7.36638655,21.1563025 6.34789916,20.3663866 5.56134454,19.3714286 C1.87731092,14.7058824 5.1210084,7.17310924 8.97647059,4.03697479 C10.5260504,2.77310924 12.3243697,1.80168067 14.1193277,1.24369748 C13.6521008,3.05882353 13.1983193,7.20336134 17.4672269,10.292437 C18.0420168,10.6991597 18.5697479,11.1529412 19.0336134,11.6470588 C20.1932773,12.8739496 20.7983193,14.4571429 20.7378151,16.1008403 C20.6739496,17.7411765 19.9546218,19.2705882 18.7109244,20.4067227 M11.3630252,22.5579832 C11.3563025,22.5579832 10.4991597,22.410084 9.73277311,21.6638655 C8.67394958,20.6184874 8.61680672,18.9277311 9.60504202,17.8117647 C9.80336134,17.589916 10.0218487,17.3815126 10.2672269,17.1966387 C11.8739496,15.9462185 12.1193277,14.2722689 11.9546218,13.0857143 C12.5865546,13.3647059 13.1747899,13.7378151 13.6957983,14.1915966 C15.3462185,15.6302521 16.7411765,19.0756303 15.1781513,21.2 C14.5495798,22.0504202 13.5579832,22.5680672 12.5058824,22.6453782 C12.4016807,22.6420168 12.297479,22.6521008 12.1932773,22.6487395 C12.1596639,22.6487395 12.1260504,22.6487395 12.092437,22.6453782 C11.8504202,22.6319328 11.6117647,22.5882353 11.3731092,22.5579832 L11.3630252,22.5579832 M19.7495798,10.9714286 C19.2285714,10.4235294 18.6571429,9.92941176 18.0420168,9.49243697 C13.1109244,5.91932773 15.2252101,0.937815126 15.3159664,0.72605042 C15.3932773,0.554621849 15.3630252,0.356302521 15.2453782,0.211764706 C15.1277311,0.0638655462 14.9361345,7.14706072e-16 14.7546218,0.0470588235 C12.5394958,0.571428571 10.2638655,1.71428571 8.3512605,3.27058824 C2.02521008,8.41680672 2.01512605,16.4705882 4.78823529,19.9831933 C6.41176471,22.0369748 8.92605042,23.3243697 11.5747899,23.6 C11.7966387,23.6336134 12.0151261,23.6537815 12.2369748,23.6537815 C12.2907563,23.6537815 12.5596639,23.6571429 12.6436975,23.6571429 C13.3798319,23.6571429 14.1226891,23.5764706 14.8487395,23.4117647 C14.9462185,23.3983193 17.2621849,23.0621849 19.3731092,21.1361345 C20.8151261,19.8184874 21.6487395,18.0436975 21.7193277,16.1411765 C21.7932773,14.2285714 21.0907563,12.3932773 19.7495798,10.9714286" id="Fuego-llama_1Light"></path>
        </g>
    </g>
</svg>

<svg width="24" height="24" viewBox="0 0 24 24" xmlns="http://www.w3.org/2000/svg"><path d="M18.71 20.407a8.533 8.533 0 01-3.081 1.788c.12-.131.235-.266.342-.41 1.92-2.609.347-6.612-1.626-8.336-.888-.773-1.943-1.341-2.972-1.604a.493.493 0 10-.581.666c.01.023.92 2.306-1.13 3.902a5.473 5.473 0 00-.803.75 3.787 3.787 0 00-.343 4.551 8.452 8.452 0 01-2.955-2.343c-3.684-4.665-.44-12.198 3.415-15.334 1.55-1.264 3.348-2.235 5.143-2.793-.467 1.815-.92 5.96 3.348 9.048.575.407 1.103.86 1.567 1.355 1.16 1.227 1.764 2.81 1.704 4.454-.064 1.64-.783 3.17-2.027 4.306m-7.348 2.151c-.007 0-.864-.148-1.63-.894a2.802 2.802 0 01-.128-3.852c.198-.222.417-.43.662-.615 1.607-1.25 1.852-2.925 1.688-4.111a6.89 6.89 0 011.74 1.106c1.651 1.438 3.046 4.884 1.483 7.008-.628.85-1.62 1.368-2.672 1.445-.104-.003-.209.007-.313.004-.033 0-.067 0-.1-.004-.243-.013-.481-.057-.72-.087h-.01m8.387-11.587a11.721 11.721 0 00-1.708-1.479C13.111 5.92 15.225.938 15.316.726a.493.493 0 00-.07-.514.474.474 0 00-.491-.165c-2.216.524-4.491 1.667-6.404 3.224-6.326 5.146-6.336 13.2-3.563 16.712 1.624 2.054 4.138 3.341 6.787 3.617.222.034.44.054.662.054l.407.003c.736 0 1.479-.08 2.205-.245.097-.014 2.413-.35 4.524-2.276 1.442-1.318 2.276-3.092 2.346-4.995.074-1.912-.628-3.748-1.97-5.17" fill="#5CB615" fill-rule="nonzero"/></svg>
